X: 1
T: John Joe Casey's
M: 4/4
L: 1/8
R: reel
K: Dmaj
|:eA (3AAA ABcd|e^def ~g3e|fd (3ddd Ad (3ddd|
|fgaf gfdf|eA (3AAA ABcd|e^def ~g3e|
|fd (3ddd edBd|1 Addc defg:|2 Addc defa||
|:b2 ba gabg|ad (3ddd Adfd|gee^d efga|
|baa^g a2 =ga|b2 ba gabg|ad (3ddd Adfd|
|g2 eg fedB|1 Addc defa:|2 Addc defg||
